!!!COM: Robert Franz
!!!CNT: Deutscher
!!!TXO: Deutsche 
!!!OTL: "Wie des Mondes Abbild"
!!!OPS: Op. 6
!!!ONM: No. 2
!!!ONB: Original key: Db Major
!!!LYR: H. Heine
!!!ENC: Brian Bice
!!!YOR: Vocal Album, G. Schirmer, Inc., 1907
!!!ODT: 1846/
!!NB: Vocal melody and text only encoded.
**kern	**silbe
*clefG2	*
*k[f#c#g#d#a#]	*
*M4/4	*
=0	=0
2.r	.
{8b	{Wie
8cc#	des
=1	=1
4dd#	Mon-
4b	-des
4cc#	Ab-
4dd#	-bild
=2	=2
(4.f#	zit-
8g#)	|
4f#}	-tert}
{8b	{in
8a#	den
=3	=3
4cc#	wil-
4a#	-den
4b	Mee-
4cc#	-res-
=4	=4
2e	-wo-
4e}	-gen,}
{8a#	{und
8g#	er
=5	=5
4b	sel-
4g#	-ber
4a#	still
4b	und
=6	=6
(4cc#	si-
8b	|
8a#)	|
4g#}	-cher}
{8f#	{wan-
8f#	-delt
=7	=7
4e#	an
4f#	dem
(4b	Him-
8a#	|
8g#)	-mels-
=8	=8
(4f#	-bo-
4g#)	|
4f#;}	-gen,}
{8b	{al-
8cc#	-so
=9	=9
4dd#	wan-
4b	-delst
4cc#	du,
4dd#	Ge-
=10	=10
(4.f#	-lieb-
8g#)	|
4f#}	-te,}
{8b	{still
8a#	und
=11	=11
4cc#	si-
8a#	-cher,
8r	.
4b	und
4cc#	es
=12	=12
2e	zit-
4e}	-tert}
{8a#	{nur
8g#	dein
=13	=13
4b	Ab-
4g#	-bild
4a#	mir
4b	im
=14	=14
(4cc#	Her-
8b	|
8a#)	|
4g#}	-zen,}
{8f#	{weil
8f#	mein
=15	=15
4en	eig-
4g#	-nes
(4cc#	Herz
8b)	|
8a#	er-
=16	=16
2b	-schu2t-
4f#}	-tert.}
4r	.
*-	*-
